app/assets/images/remix_icon/user/user-received-fill.svg

<svg viewBox="0 0 24 24" xmlns="http://www.w3.org/2000/svg"><path d="M14 14.252V22H4C4 17.5817 7.58172 14 12 14C12.6906 14 13.3608 14.0875 14 14.252ZM12 13C8.685 13 6 10.315 6 7C6 3.685 8.685 1 12 1C15.315 1 18 3.685 18 7C18 10.315 15.315 13 12 13ZM19.4184 17H23.0042V19H19.4184L21.2469 20.8284L19.8326 22.2426L15.59 18L19.8326 13.7574L21.2469 15.1716L19.4184 17Z"/></svg>

<svg xmlns="http://www.w3.org/2000/svg" viewBox="0 0 24 24">
    <g>
        <path fill="none" d="M0 0h24v24H0z"/>
        <path d="M14 14.252V22H4a8 8 0 0 1 10-7.748zM12 13c-3.315 0-6-2.685-6-6s2.685-6 6-6 6 2.685 6 6-2.685 6-6 6zm7.418 4h3.586v2h-3.586l1.829 1.828-1.414 1.415L15.59 18l4.243-4.243 1.414 1.415L19.418 17z"/>
    </g>
</svg>
